X: 20481
T: PRINCE REGENT'S HORNPIPE
C:
%R: hornpipe, reel
B: Elias Howe "The Musician's Companion" 1843 p.48 #1
S: http://imslp.org/wiki/The_Musician's_Companion_(Howe,_Elias)
Z: 2015 John Chambers <jc:trillian.mit.edu>
M: C|
L: 1/8
K: G
% - - - - - - - - - - - - - - - - - - - - - - - - -
D2 |\
GFGA GBdB | AGAB cdef | gfgd ecAG | FGAF DEFD |\
GFGA GBdB | AGAB cdef | gfge ecAF | G2G2 G2 :|
|: Bc |\
dedc BcdB | efed cdef | gfgd ecAG | FGAF DEFD |\
GABG EFGE | ABcA FGAF | GdBG cAFA | G2G2 G2 :|
% - - - - - - - - - - - - - - - - - - - - - - - - -

%%sep 1 1 500

